assets/icons/lib/zoom-in.svg

<svg class="Icon Icon-zoom-in" width="24" height="24" viewBox="0 0 24 24" fill="none" xmlns="http://www.w3.org/2000/svg">
<path fill-rule="evenodd" clip-rule="evenodd" d="M4 11C4 7.13401 7.13401 4 11 4C14.866 4 18 7.13401 18 11C18 12.8856 17.2544 14.5971 16.042 15.8557C16.0075 15.8822 15.9744 15.9112 15.9428 15.9428C15.9112 15.9744 15.8822 16.0075 15.8557 16.042C14.5971 17.2544 12.8856 18 11 18C7.13401 18 4 14.866 4 11ZM16.6177 18.0319C15.078 19.2635 13.125 20 11 20C6.02944 20 2 15.9706 2 11C2 6.02944 6.02944 2 11 2C15.9706 2 20 6.02944 20 11C20 13.125 19.2635 15.078 18.0319 16.6177L21.707 20.2928C22.0975 20.6833 22.0975 21.3165 21.707 21.707C21.3165 22.0975 20.6833 22.0975 20.2928 21.707L16.6177 18.0319ZM11 7C11.5523 7 12 7.44772 12 8V10H14C14.5523 10 15 10.4477 15 11C15 11.5523 14.5523 12 14 12H12V14C12 14.5523 11.5523 15 11 15C10.4477 15 10 14.5523 10 14V12H8C7.44772 12 7 11.5523 7 11C7 10.4477 7.44772 10 8 10H10V8C10 7.44772 10.4477 7 11 7Z" fill="currentColor"/>
</svg>

<svg class="Icon Icon-zoom-in" viewBox="0 0 24 24" fill="none" xmlns="http://www.w3.org/2000/svg"><path fill-rule="evenodd" clip-rule="evenodd" d="M4 11a7 7 0 1 1 12.042 4.856 1.012 1.012 0 0 0-.186.186A7 7 0 0 1 4 11Zm12.618 7.032a9 9 0 1 1 1.414-1.414l3.675 3.675a1 1 0 0 1-1.414 1.414l-3.675-3.675ZM11 7a1 1 0 0 1 1 1v2h2a1 1 0 1 1 0 2h-2v2a1 1 0 1 1-2 0v-2H8a1 1 0 1 1 0-2h2V8a1 1 0 0 1 1-1Z" fill="currentColor"/></svg>
